img/categories/categories-a/important.svg

<svg width="55" height="50" viewBox="0 0 55 50" fill="none" xmlns="http://www.w3.org/2000/svg">
<path d="M27.4933 49.2312C20.367 49.2312 13.2371 49.2456 6.11081 49.2276C1.00315 49.2133 -1.54708 44.8779 0.995969 40.4491C8.12226 28.0427 15.2701 15.6507 22.4503 3.2731C24.9825 -1.09103 29.9968 -1.09103 32.5291 3.2731C39.738 15.701 46.9182 28.1433 54.0768 40.6035C56.4977 44.8132 53.9259 49.2061 49.0589 49.2276C41.8716 49.2564 34.6842 49.2348 27.4969 49.2348L27.4933 49.2312ZM27.5005 47.1587C34.5046 47.1587 41.5088 47.1695 48.5166 47.1551C52.5826 47.1479 54.0373 44.6444 52.0222 41.1567C45.054 29.0808 38.0893 17.0013 31.1175 4.92896C28.9372 1.15389 26.0529 1.15389 23.8691 4.93255C16.9906 16.854 10.1158 28.7755 3.24449 40.7005C0.848702 44.8563 2.19925 47.1551 7.02674 47.1587C13.8513 47.1587 20.6759 47.1587 27.504 47.1587H27.5005Z" fill="#035FB1"/>
<path d="M31.3803 23.6713C31.3803 25.6432 31.4234 27.6187 31.3695 29.5871C31.2977 32.0978 29.8573 33.4555 27.4113 33.4268C25.0766 33.3981 23.6542 32.0368 23.6218 29.6051C23.568 25.7222 23.5644 21.8358 23.6218 17.9494C23.6578 15.4926 25.2454 13.9983 27.5765 14.0414C29.8178 14.0809 31.3049 15.5644 31.3731 17.935C31.427 19.8459 31.3839 21.7604 31.3839 23.6713H31.3803ZM29.2898 23.8401C29.2898 21.9867 29.2683 20.1369 29.297 18.2834C29.315 17.0335 28.9271 16.1499 27.5154 16.1391C26.1254 16.1283 25.6764 16.9509 25.6836 18.2296C25.7051 21.9328 25.7087 25.636 25.6836 29.3428C25.6728 30.6503 26.1793 31.4118 27.5514 31.383C28.8373 31.3579 29.3114 30.6108 29.2934 29.3931C29.2683 27.5433 29.2862 25.6899 29.2862 23.8365L29.2898 23.8401Z" fill="#035FB1"/>
<path d="M27.5837 35.4635C29.6634 35.4994 31.348 37.1876 31.3623 39.2421C31.3767 41.3793 29.6454 43.1249 27.4939 43.1321C25.3603 43.1393 23.5931 41.3613 23.6254 39.2457C23.6578 37.0978 25.407 35.4275 27.5837 35.4635ZM29.5305 39.7809L29.5664 38.944C28.8804 38.4663 28.144 37.5503 27.5262 37.6258C26.8653 37.7048 25.9709 38.6459 25.8344 39.3427C25.7446 39.7953 26.7899 40.8944 27.3933 40.9483C28.0686 41.0057 28.8157 40.2083 29.5305 39.7809Z" fill="#035FB1"/>
</svg>

<svg width="55" height="50" fill="none" xmlns="http://www.w3.org/2000/svg"><path d="M27.493 49.231c-7.126 0-14.256.015-21.382-.003-5.108-.015-7.658-4.35-5.115-8.779A10053.133 10053.133 0 0 1 22.45 3.273c2.533-4.364 7.547-4.364 10.08 0a10371.46 10371.46 0 0 1 21.547 37.33c2.42 4.21-.151 8.603-5.018 8.625-7.187.028-14.375.007-21.562.007l-.004-.004Zm.008-2.072c7.004 0 14.008.01 21.016-.004 4.066-.007 5.52-2.51 3.505-5.998C45.054 29.08 38.09 17 31.118 4.929c-2.18-3.775-5.065-3.775-7.249.004A71012.23 71012.23 0 0 0 3.244 40.7C.85 44.856 2.2 47.155 7.027 47.16h20.477-.004Z" fill="#035FB1"/><path d="M31.38 23.671c0 1.972.043 3.948-.01 5.916-.072 2.51-1.513 3.869-3.959 3.84-2.334-.029-3.757-1.39-3.79-3.822-.053-3.883-.057-7.77 0-11.656.037-2.456 1.624-3.95 3.956-3.908 2.24.04 3.728 1.523 3.796 3.894.054 1.91.01 3.825.01 5.736h-.003Zm-2.09.17c0-1.854-.022-3.704.007-5.558.018-1.25-.37-2.133-1.782-2.144-1.39-.01-1.839.812-1.831 2.09.021 3.704.025 7.407 0 11.114-.011 1.307.495 2.069 1.867 2.04 1.286-.025 1.76-.772 1.742-1.99-.025-1.85-.007-3.703-.007-5.556l.004.003Zm-1.706 11.623c2.08.035 3.764 1.724 3.778 3.778a3.872 3.872 0 0 1-3.868 3.89c-2.134.007-3.9-1.77-3.869-3.886.033-2.148 1.782-3.819 3.959-3.782Zm1.947 4.317.035-.837c-.686-.478-1.422-1.394-2.04-1.318-.66.079-1.555 1.02-1.692 1.717-.09.452.956 1.551 1.56 1.605.675.058 1.422-.74 2.137-1.167Z" fill="#035FB1"/></svg>
